X:136
T: AUF EINER HOHEN MAUER
N: K2224
O: Europa, Mitteleuropa, Deutschland, Berlin
R: Kinder - Lied, Reigen, Tanz - Spiel, Brautwerbung
M: 2/4
L: 1/16
K: D
A2 | A2A2B2B2 | A4F2
F2 | G2G2E2G2 | F4z2
A2 | A2A2B2B2 | A4F2
F2 | G2G2E2G2 | D4z2
F2 | A2A2B2B2 | A4z2
A2 | A2A2B2B2 | A4z2
FF | G2G2E2EE | F2F2D2
DD | E2E2C2C2 | D4z2

